icons/file.svg

<svg width="24" height="24" viewBox="0 0 24 24" fill="none" xmlns="http://www.w3.org/2000/svg">
<path d="M4 4C4 2.89543 4.89543 2 6 2H12H13.1716C13.702 2 14.2107 2.21071 14.5858 2.58579L19.4142 7.41421C19.7893 7.78929 20 8.29799 20 8.82843V12V20C20 21.1046 19.1046 22 18 22H6C4.89543 22 4 21.1046 4 20V4Z" stroke="black" stroke-width="2"/>
<path d="M13 2V7C13 8.10457 13.8954 9 15 9H20" stroke="black" stroke-width="2"/>
</svg>

<svg
  xmlns="http://www.w3.org/2000/svg"
  width="24"
  height="24"
  viewBox="0 0 24 24"
  fill="none"
  stroke="currentColor"
  stroke-width="2"
  stroke-linecap="round"
  stroke-linejoin="round"
>
  <path d="M4 4a2 2 0 0 1 2-2h7.172a2 2 0 0 1 1.414.586l4.828 4.828A2 2 0 0 1 20 8.828V20a2 2 0 0 1-2 2H6a2 2 0 0 1-2-2z" />
  <path d="M13 2v5a2 2 0 0 0 2 2h5" />
</svg>
